X:241
T: WER WOLLTE SICH MIT GRILLEN PLAGEN
N: B0290
O: Europa, Mitteleuropa, Deutschland
R: Stimmungs - Lied, Freude
M: 6/8
L: 1/8
K: F
c | cAFFEG | GcBBA
F | EGFEGF | GA=Bc2
c | c2dc=BA | Gdffe
c | f2c_edB | ABGF2

